X: 49
M: 4/4
L: 1/8
K: A
[| A4 A4 | c c e e c2 A2 | B4 B4 | G G B B
E2 G2 | A4 z4 |: A2 A A A2 AA | c2 e e c2 A2 |


